!! 00000] TT[WS
!!!OTL: Bai xinnian
!!!ARE: Asia, China, Shanxi Jindong
!! Ethnic Group: Han
!! WII, 176 (1)
!!!SCT: J0666
!!!YEM: Copyright 1995, estate of Helmut Schaffrath.
**kern
*ICvox
*Ivox
*M2/4
*k[b-]
*F:
{8dd
16dd
16ff
8dd
8a
=1
8dd
16dd
16ff
8dd
8a
=2
8cc
8a
8cc
8dd
=3
2a}
=4
{8cc
8f
4g
=5
8cc
8a
4g
=6
8cc
8a
8g
8f
=7
2d}
=8
{8dd
8a
4cc
=9
8a
8cc
4a
=10
8cc
8a
8g
8g
=11
2a}
=12
{8g
8a
8g
8d
=13
8a
8g
4a
=14
8cc
8a
8g
8f
=15
2d}
==
!!!AGN: Xiaodiao, Qingge
!!!ONB: ESAC (Essen Associative Code) Database: CHINA
!!!AMT: simple duple
!!!AIN: vox
!!!EED: Helmut Schaffrath
!!!EEV: 1.0
*-
